X:1
T:Lord James Murray
T:Lord James Murray
T:Niel Gow
C:Niel Gow
L:1/8
Q:1/8=232
M:4/4
K:D
V:1 treble 
V:1
|: f | d2 AB/c/ dA FD | Ee ed cA Bc | dA Bd Ad AF | GB AF D2 Df | d2 AB/c/ dA FD | Ee ed cA Bc | %7
 dA Bd Ad AF | GB AF D2 Df/g/ | ad fd fa df | be ge gb eg | ad fd fa df | ge af d2 df/g/ | %13
 ad fd fa df | be ge gb eg | fa ef de Bd | Ad AF D2 D :| %17

